X: 682
T: Yibane Hamikdash [Dm]
O: Trad Ashekazi
O: Zemirot Liturgy
Z: 2008 John Chambers <jc:trillian.mit.edu>
S: printed MS of unknown origin
M: 2/4
L: 1/8
K: Dm
|: "Dm"F D2 F | "C"ED C2 | CG FE | "Dm"D2 D2 | "Dm"F D2 F | "C"ED C2 
w: Yi-bo-ne yi-bo-ne yi-bo-ne ha-mik-dash 'ir Tsi-yon 'ir Tsi-yon
|  CG FE | "Dm"D2 D2 :: "Dm"z F2 F | A2 G2 | F2 A2 | "Gm"G4 
w: 'ir Tsi-yon ti-ma-le' V'-sham na-shir shir cha-dash
|1 "C7"z G2 G |  A2 G2 | "(F)"F2 "C7"EG | "F"F4 :|2 "A7"z G2 G | A2 G2 | "(Dm)"F2 "A7"E2 | "Dm"D4 |]
w: u-vir-na-na na-a-*le u-vir-na-na na-a-le.



